X:1526
T:Devil take the hindmost
O:england
L:1/8
M:6/8
C:Laurie Griffiths and Judith Beton
K:A
efg |\
"A"a3 a3 | "A"agf edc |\
"E7"Bcd cBA | "E7"Bc\
d efg | "A"a3 a3 |\
"A"agf edc | "E7"Bcd dcB \
|1 "A"A3 :|2 "A"A6 |
"E"Bcd dcB | "A"cde edc |\
"E"Bcd dcB | "A"cde e3 |\
"D"fga agf | "A"edc Bcd |\
"E7"efe dcB | "A"A6 |
"Bm"Bcd dcB | "C#m"cde edc |\
"D"Bcd dcB | "E"cde "E7"efg |\
"A"a3 a3 | "A"agf edc |\
"E7"Bcd efg | "A"a3 ||


